!!!!SEGMENT: pl-kk--kk-i-6--064-005_lilius-franciszek--missa-pro-defunctis-dies-irae.krn
!!!cenid: 16xx:1064
!!!COM: Lilius, Franciszek
!!!COM-rismID: pe30020509
!!!CDT: ~1600-1657
!!!CNT: Polish
!!!OPR: Missa pro defunctis
!!!OTL: Dies irae
!!!OMV: 005
!!!PDT:
!!!AGN:
!!!SMS-siglum: PL-Kk
!!!SMS-shelfmark: Kk.I.6
!!!SMS-shelfwork: 064-005 M
!!!SMS-variant:
!!!SMS-altvar:
!!!NIFC-rismSourceID: 1001135513
!!!NIFC-rismChildID: 1001136594
!!!NIFC-islandoraID: pl-kk:1634
!!!URL-pdf-islandora: https://repozytorium.nifc.pl/islandora/object/pl-kk%3A1634/datastream/PDF/view
!!!URL-scan: https://polish.musicsources.pl/pl/lokalizacje/galeria/rekopisy/6133 @EN{Scan on Polish Music Sources Website} @PL{Skany w portalu Dziedzictwo Muzyki Polskiej w otwartym dostępie}
!!!ONB-nifc: UWAGA: C (skan 0088-0092), T (skan 0200-0206), B (skan 0313-0319) Części Mszy: 1. Requiem aeternam, 2. Kyrie, 3. Requiem aeternam, 4. Absolve Domine, 5. Dies irae, 6. Domine Jesu Christe, 7. Sanctus, 8. Agnus Dei, 9. Lux aeterna
!!!AIN: 1 empty 1 tenor 1 vox
!!!key:
**kern	**text	**kern	**text	**text	**kern	**text
*group1	*	*group1	*	*	*group1	*
*part3	*part3	*part2	*part2	*part2	*part1	*part1
*staff3	*staff3	*staff2	*staff2	*staff2	*staff1	*staff1
*Iempty	*	*Itenor	*	*	*Ivox	*
*I"Baſsus.	*	*I"Tenor.	*	*	*I"Cantus.	*
*I'B	*	*I'T	*	*	*I'S	*
*clefF4	*	*clefC4	*	*	*clefC4	*
*k[b-]	*	*k[b-]	*	*	*k[b-]	*
*g:	*	*g:	*	*	*g:	*
*M4/4	*	*M4/4	*	*	*M4/4	*
*met(C)	*	*met(C)	*	*	*met(C)	*
=1-	=1-	=1-	=1-	=1-	=1-	=1-
1G	Di-	1d	Di-	.	1B-	Di-
=2-	=2-	=2-	=2-	=2-	=2-	=2-
1D	-es	1d	-es	.	1A	-es
=3-	=3-	=3-	=3-	=3-	=3-	=3-
1G	i-	2.d\	i-	.	1B-	i-
.	.	4c\	.	.	.	.
=4-	=4-	=4-	=4-	=4-	=4-	=4-
1G	-rae	2B-\	.	.	1G	-rae
.	.	2B-\	-rae	.	.	.
=5-	=5-	=5-	=5-	=5-	=5-	=5-
2r	.	2r	.	.	1A	di-
1F\	di-	1c\	di-	.	.	.
=6-	=6-	=6-	=6-	=6-	=6-	=6-
.	.	.	.	.	1F	-es
2D/	-es	2B-\	-es	.	.	.
=7-	=7-	=7-	=7-	=7-	=7-	=7-
1C	il-	1c	il-	.	1G	il-
=8-	=8-	=8-	=8-	=8-	=8-	=8-
1C	-la	1c	-la	.	1G	-la
=9-	=9-	=9-	=9-	=9-	=9-	=9-
2r	.	2r	.	.	1B-	ſol-
1BB-/	ſol-	1d\	ſol-	.	.	.
=10-	=10-	=10-	=10-	=10-	=10-	=10-
*	*	*	*	*	*lig	*
.	.	.	.	.	1B-	-vet
2BB-/	-vet	1B-\	-vet	.	.	.
=11-	=11-	=11-	=11-	=11-	=11-	=11-
1FF	ſae-	.	.	.	1c	.
.	.	2A/	.	.	.	.
*	*	*	*	*	*Xlig	*
=12-	=12-	=12-	=12-	=12-	=12-	=12-
*	*	*	*	*	*lig	*
1BB-	-clum	1B-	ſae-	.	1B-	ſae-
=13-	=13-	=13-	=13-	=13-	=13-	=13-
1F	in	1c	.	.	1A	.
*	*	*	*	*	*Xlig	*
=14-	=14-	=14-	=14-	=14-	=14-	=14-
*	*	*	*	*	*lig	*
1C	fa-	2.c\	-clum	.	1G	-clum
.	.	4B-\	in	.	.	.
=15-	=15-	=15-	=15-	=15-	=15-	=15-
1.D	-vil-	2A/	fa-	.	1F	.
.	.	2.A/	-vil-	.	.	.
*	*	*	*	*	*Xlig	*
=16-	=16-	=16-	=16-	=16-	=16-	=16-
.	.	.	.	.	1A	in
.	.	4B-\	.	.	.	.
2C/	.	2c\	.	.	.	.
*	*	*custos:d	*	*	*	*
!	!	!LO:LB:g=original	!	!	!	!
=17-	=17-	=17-	=17-	=17-	=17-	=17-
2BB-/	.	0d	.	.	1B-	fa-
2GG/	.	.	.	.	.	.
=18-	=18-	=18-	=18-	=18-	=18-	=18-
1D	.	.	.	.	1A	-vil-
*	*	*	*	*	*custos:G	*
!	!	!	!	!	!LO:LB:g=original	!
=19-	=19-	=19-	=19-	=19-	=19-	=19-
!	!	!LO:TX:a:t=P:problem=# above	!	!	!	!
!	!	!LO:N:acc=#	!	!	!	!
1GG	-la	1Bn	-la	.	1G	-la
!LO:LB:g=original	!	!	!	!	!	!
=20-	=20-	=20-	=20-	=20-	=20-	=20-
2r	.	2r	.	.	1D	te-
1D\	te-	1A\	te-	.	.	.
=21-	=21-	=21-	=21-	=21-	=21-	=21-
*	*	*	*	*	*lig	*
.	.	.	.	.	1F	-ſte
!	!	!LO:N:acc=#	!	!	!	!
!	!	!LO:TX:a:t=P:problem=# above	!	!	!	!
2D/	-ſte	2Bn\	-ſte	.	.	.
=22-	=22-	=22-	=22-	=22-	=22-	=22-
*lig	*	*	*	*	*	*
1C	Da-	1.c	Da-	.	1G	.
*	*	*	*	*	*Xlig	*
=23-	=23-	=23-	=23-	=23-	=23-	=23-
1GG	.	.	.	.	1G	Da-
!	!	!LO:TX:a:t=P:problem=# above	!	!	!	!
!	!	!LO:N:acc=#	!	!	!	!
.	.	2Bn\	.	.	.	.
*Xlig	*	*	*	*	*	*
=24-	=24-	=24-	=24-	=24-	=24-	=24-
*	*	*	*	*	*lig	*
1C	-vid	1c	-vid	.	1G	-vid
=25-	=25-	=25-	=25-	=25-	=25-	=25-
2r	.	1A	cum	.	1F	.
1F\	cum	.	.	.	.	.
*	*	*	*	*	*Xlig	*
=26-	=26-	=26-	=26-	=26-	=26-	=26-
.	.	2F/	Sy-	.	1A	cum
2F\	Si-	2.A/	.	.	.	.
=27-	=27-	=27-	=27-	=27-	=27-	=27-
2.BB-/	-bil-	.	.	.	1B-	Sy-
.	.	4G/	.	.	.	.
.	.	1G/	-bil-	.	.	.
4C/	.	.	.	.	.	.
=28-	=28-	=28-	=28-	=28-	=28-	=28-
1D	.	.	.	.	1A	-bil-
!	!	!LO:TX:a:t=P:problem=# above	!	!	!	!
.	.	2F#X/	.	.	.	.
=29-	=29-	=29-	=29-	=29-	=29-	=29-
!	!	!	!	!	!LO:TX:t=P:problem=kreska pseudotaktowa	!
0GG;>	-la	1G;>	-la	.	0G;>	-la
=30-	=30-	=30-	=30-	=30-	=30-	=30-
.	.	1ryy	.	.	.	.
!LO:LB:g=original	!	!LO:LB:g=original	!	!	!	!
=31-	=31-	=31-	=31-	=31-	=31-	=31-
*k[b-]	*	*k[b-]	*	*	*k[b-]	*
*M4/4	*	*M4/4	*	*	*M4/4	*
*met(C)	*	*met(C)	*	*	*met(C)	*
!LO:TX:t=P:problem=brak zaznaczonego metrum	!	!	!	!	!	!
1r	.	0r	.	.	1d	Tu-
=32-	=32-	=32-	=32-	=32-	=32-	=32-
1D	Tu-	.	.	.	1f	-ba
=33-	=33-	=33-	=33-	=33-	=33-	=33-
1F	-ba	1A	Tu-	.	1f	mi-
=34-	=34-	=34-	=34-	=34-	=34-	=34-
*	*	*	*	*	*lig	*
1.C	mi-	1c	-ba	.	1e	-rum
=35-	=35-	=35-	=35-	=35-	=35-	=35-
.	.	2.G/	mi-	.	1c	.
2C/	-rum	.	.	.	.	.
.	.	4A/	.	.	.	.
*	*	*	*	*	*Xlig	*
=36-	=36-	=36-	=36-	=36-	=36-	=36-
2GG/	-ſpar-	4B-\	.	.	1d	.
.	.	4c\	.	.	.	.
2.G\	.	2d\	.	.	.	.
=37-	=37-	=37-	=37-	=37-	=37-	=37-
*	*	*	*	*	*lig	*
.	.	1.B-	.	.	1d	-ſpar
4A\	.	.	.	.	.	.
2B-\	.	.	.	.	.	.
=38-	=38-	=38-	=38-	=38-	=38-	=38-
1F	-gens	.	.	.	1c	.
.	.	2A\	.	.	.	.
*	*	*	*	*	*Xlig	*
=39-	=39-	=39-	=39-	=39-	=39-	=39-
*lig	*	*	*	*	*	*
1G	ſo-	4G\	.	.	1B-	gens
.	.	4A\	.	.	.	.
.	.	1B-\	.	.	.	.
*	*	*	*	*	*custos:c	*
=40-	=40-	=40-	=40-	=40-	=40-	=40-
!	!	!	!	!	!LO:TX:t=P:problem=brak tekstu	!
*	*	*	*	*	*lig	*
1F	.	.	.	.	1c	.
.	.	2A\	.	.	.	.
*Xlig	*	*	*	*	*	*
=41-	=41-	=41-	=41-	=41-	=41-	=41-
0BB-	-num	0B-	-rum	.	1d	.
*	*	*	*	*	*Xlig	*
=42-	=42-	=42-	=42-	=42-	=42-	=42-
*	*	*	*	*	*lig	*
.	.	.	.	.	1d	.
=43-	=43-	=43-	=43-	=43-	=43-	=43-
2r	.	2r	.	.	1G	.
1E-X\	per	1B-\	-ſpar	.	.	.
*	*	*	*	*	*Xlig	*
=44-	=44-	=44-	=44-	=44-	=44-	=44-
.	.	.	.	.	1B-	.
2G\	ſe-	2B-\	-gens	.	.	.
=45-	=45-	=45-	=45-	=45-	=45-	=45-
1F	-pul-	1c	ſo-	.	1A	.
=46-	=46-	=46-	=46-	=46-	=46-	=46-
1BB-	-chra	1d	-num	.	1B-	.
=47-	=47-	=47-	=47-	=47-	=47-	=47-
1.C	re-	2c\	per	.	1G	.
.	.	2G/	.	.	.	.
=48-	=48-	=48-	=48-	=48-	=48-	=48-
.	.	1.c	ſe-	.	1A	.
2C/	-gi-	.	.	.	.	.
=49-	=49-	=49-	=49-	=49-	=49-	=49-
1D	-o-	.	.	.	1F	.
!	!	!LO:TX:a:t=P:problem=# above	!	!	!	!
!	!	!LO:N:acc=#	!	!	!	!
.	.	2Bn\	-pul-	.	.	.
=50-	=50-	=50-	=50-	=50-	=50-	=50-
0C	-num	0c	-chra	.	1G	.
!	!	!LO:PB:g=original	!	!	!	!
=51-	=51-	=51-	=51-	=51-	=51-	=51-
.	.	.	.	.	1G	.
*custos:G	*	*	*	*	*	*
!LO:LB:g=original	!	!	!	!	!	!
=52-	=52-	=52-	=52-	=52-	=52-	=52-
2G\	co-	2r	.	.	1B-	.
2G\	-get	1B-y\	re-	.	.	.
=53-	=53-	=53-	=53-	=53-	=53-	=53-
*	*	*	*	*	*lig	*
2.F\	om-	.	.	.	1c	.
.	.	2A\	-gi-	.	.	.
4Eny\	.	.	.	.	.	.
=54-	=54-	=54-	=54-	=54-	=54-	=54-
4D\	.	2B-\	-o	.	1d	.
4C\	.	.	.	.	.	.
1BB-/	.	4f\	.	.	.	.
.	.	4e\	.	.	.	.
*	*	*	*	*	*Xlig	*
=55-	=55-	=55-	=55-	=55-	=55-	=55-
*	*	*	*	*	*lig	*
.	.	4d\	.	.	1d	.
.	.	4c\	.	.	.	.
2BB-/	-nes	1B-\	.	.	.	.
=56-	=56-	=56-	=56-	=56-	=56-	=56-
2FF/	an-	.	.	.	1c	.
2FF/	-te	1A\	[-num]	.	.	.
*	*	*	*	*	*Xlig	*
=57-	=57-	=57-	=57-	=57-	=57-	=57-
4GG/	thro-	.	.	.	1B-	.
4AA/	.	.	.	.	.	.
4BB-/	.	1G/	co-	.	.	.
4C/	.	.	.	.	.	.
=58-	=58-	=58-	=58-	=58-	=58-	=58-
*	*	*	*	*	*lig	*
1D	.	.	.	.	1A	.
.	.	2F#X/	-get	.	.	.
=59-	=59-	=59-	=59-	=59-	=59-	=59-
*lig	*	*	*	*	*	*
1E-X	.	1G	om-	.	1G	.
*	*	*	*	*	*Xlig	*
=60-	=60-	=60-	=60-	=60-	=60-	=60-
1D	.	2A/	-nes	.	1F	.
.	.	1d\	an-	.	.	.
*Xlig	*	*	*	*	*	*
=61-	=61-	=61-	=61-	=61-	=61-	=61-
2r	.	.	.	.	1A	.
2C/	.	2e\	-te	.	.	.
=62-	=62-	=62-	=62-	=62-	=62-	=62-
2.BB-/	.	0d	thro-	.	1B-	.
4C/	.	.	.	.	.	.
=63-	=63-	=63-	=63-	=63-	=63-	=63-
1D	.	.	.	.	1A	.
=64-	=64-	=64-	=64-	=64-	=64-	=64-
!	!	!LO:N:acc=#	!	!	!	!
0GG;>	-num	0Bn;<	-num.	.	0G;>	.
!LO:LB:g=original	!	!LO:LB:g=original	!	!	!LO:LB:g=original	!
=65-	=65-	=65-	=65-	=65-	=65-	=65-
*k[b-]	*	*k[b-]	*	*	*k[b-]	*
*M4/4	*	*M4/4	*	*	*M4/4	*
*met(C)	*	*met(C)	*	*	*met(C)	*
!LO:TX:t=P:problem=brak zaznaczonego metrum	!	!	!	!	!	!
1BB-	Li-	1B-	Li-	.	1d	Li-
=66-	=66-	=66-	=66-	=66-	=66-	=66-
*lig	*	*lig	*	*	*lig	*
1F	-ber	1A	-ber	.	1c	-ber
=67-	=67-	=67-	=67-	=67-	=67-	=67-
1G	.	1G	.	.	1B-	.
*Xlig	*	*Xlig	*	*	*Xlig	*
=68-	=68-	=68-	=68-	=68-	=68-	=68-
*	*	*	*	*	*lig	*
2.F\	ſcri-	4A\	.	.	1c	ſcri-
.	.	4B-\	.	.	.	.
.	.	1c\	.	.	.	.
4E\	.	.	.	.	.	.
=69-	=69-	=69-	=69-	=69-	=69-	=69-
1D	.	.	.	.	1d	.
!	!	!LO:TX:a:t=P:problem=# above	!	!	!	!
!	!	!LO:N:acc=#	!	!	!	!
.	.	2Bn\	ſcri-	.	.	.
*	*	*	*	*	*Xlig	*
=70-	=70-	=70-	=70-	=70-	=70-	=70-
1C	-ptus	1c	-ptus	.	1G	-ptus
=71-	=71-	=71-	=71-	=71-	=71-	=71-
*	*	*	*	*	*lig	*
1C	pro-	2.c\	pro-	.	1G	pro-
.	.	4B-y\	-fe-	.	.	.
=72-	=72-	=72-	=72-	=72-	=72-	=72-
1FF	-fe-	2A\	-re-	.	1F	.
.	.	2A\	-tur	.	.	.
*	*	*	*	*	*Xlig	*
=73-	=73-	=73-	=73-	=73-	=73-	=73-
2.BB-/	-re-	2B-\	.	.	1D	-fe-
.	.	2.d\	.	.	.	.
4C/	.	.	.	.	.	.
=74-	=74-	=74-	=74-	=74-	=74-	=74-
*	*	*	*	*	*lig	*
1D	.	.	.	.	1F	-re-
.	.	4c\	.	.	.	.
.	.	4A\	.	.	.	.
!	!	!LO:TX:a:t=P:problem=# above	!	!	!	!
!	!	!LO:N:acc=#	!	!	!	!
.	.	4Bn\	.	.	.	.
=75-	=75-	=75-	=75-	=75-	=75-	=75-
1C	-tur	1c	.	.	1G	.
*	*	*	*	*	*Xlig	*
=76-	=76-	=76-	=76-	=76-	=76-	=76-
2r	.	1B-y	.	.	1G	-tur
2.GG/	in	.	.	.	.	.
=77-	=77-	=77-	=77-	=77-	=77-	=77-
*	*	*	*	*	*lig	*
.	.	1.d	in	.	1B-	in
4AA/	.	.	.	.	.	.
4BB-/	.	.	.	.	.	.
4C/	.	.	.	.	.	.
=78-	=78-	=78-	=78-	=78-	=78-	=78-
4D/	.	.	.	.	1A	.
4E/	.	.	.	.	.	.
2F\	.	2c\	quo	.	.	.
*	*	*	*	*	*Xlig	*
=79-	=79-	=79-	=79-	=79-	=79-	=79-
1C	quo	2.c\	to-	.	1G	quo
.	.	4B-\	.	.	.	.
*custos:D	*	*custos:A	*	*	*	*
!LO:LB:g=original	!	!LO:LB:g=original	!	!	!	!
=80-	=80-	=80-	=80-	=80-	=80-	=80-
2.D/	to-	4A/	.	.	1F	to-
.	.	4G/	.	.	.	.
.	.	2F/	.	.	.	.
4D/	-tum	.	.	.	.	.
=81-	=81-	=81-	=81-	=81-	=81-	=81-
1.BB-	con-	2F/	-tum	.	1D	-tum
.	.	4f\	con-	.	.	.
.	.	4e\	-ti-	.	.	.
=82-	=82-	=82-	=82-	=82-	=82-	=82-
.	.	2d\	-ne-	.	1F	con-
2AA/	-ti-	2c\	.	.	.	.
=83-	=83-	=83-	=83-	=83-	=83-	=83-
0GG	-ne-	2.B-\	.	.	1G	ti-
.	.	4A\	.	.	.	.
=84-	=84-	=84-	=84-	=84-	=84-	=84-
.	.	4G/	.	.	1B-	-ne-
.	.	4F/	.	.	.	.
.	.	2G/	.	.	.	.
=85-	=85-	=85-	=85-	=85-	=85-	=85-
*	*	*	*	*	*lig	*
0D	-tur	2.F#X/	.	.	1A	.
.	.	4G/	.	.	.	.
=86-	=86-	=86-	=86-	=86-	=86-	=86-
.	.	1A	-tur	.	1F	.
*	*	*	*	*	*Xlig	*
=87-	=87-	=87-	=87-	=87-	=87-	=87-
2r	.	2r	.	.	1G	-tur
1G\	Un-	1B-\	Un-	.	.	.
=88-	=88-	=88-	=88-	=88-	=88-	=88-
.	.	.	.	.	1d	Un-
2G\	-de	2B-\	-de	.	.	.
=89-	=89-	=89-	=89-	=89-	=89-	=89-
1G	mun-	2d\	mun-	.	1B-	-de
.	.	2d\	-dus	.	.	.
=90-	=90-	=90-	=90-	=90-	=90-	=90-
0C	-dus	2.e#X\	iu-	.	1c	mun-
.	.	4d\	.	.	.	.
*	*	*	*	*	*custos:G	*
!	!	!	!	!	!LO:LB:g=original	!
=91-	=91-	=91-	=91-	=91-	=91-	=91-
.	.	1.c	-di-	.	1G	-dus
=92-	=92-	=92-	=92-	=92-	=92-	=92-
1D	iu-	.	.	.	1F	iu-
!	!	!LO:N:acc=#	!	!	!	!
!	!	!LO:TX:a:t=P:problem=# above	!	!	!	!
.	.	2Bn\	-ce-	.	.	.
*	*	*custos:c	*	*	*	*
!	!	!LO:LB:g=original	!	!	!	!
=93-	=93-	=93-	=93-	=93-	=93-	=93-
*	*	*lig	*	*	*	*
1C	-di-	1c	.	.	1G	-di-
=94-	=94-	=94-	=94-	=94-	=94-	=94-
*	*	*	*	*	*lig	*
4BB-/	-ce-	1d	.	.	1B-	-ce-
4C/	.	.	.	.	.	.
4D/	.	.	.	.	.	.
4E\	.	.	.	.	.	.
*	*	*Xlig	*	*	*	*
=95-	=95-	=95-	=95-	=95-	=95-	=95-
2.F\	.	2c\	.	.	1A	.
.	.	2.f\	.	.	.	.
4E\	.	.	.	.	.	.
*	*	*	*	*	*Xlig	*
=96-	=96-	=96-	=96-	=96-	=96-	=96-
2.D/	.	.	.	.	1F	.
.	.	4eny\	.	.	.	.
.	.	2.d\	.	.	.	.
4C/	.	.	.	.	.	.
=97-	=97-	=97-	=97-	=97-	=97-	=97-
!LO:TX:b:t=P:problem=# below	!	!	!	!	!	!
!LO:N:acc=#	!	!	!	!	!	!
2BBn/	.	.	.	.	0.G	.
.	.	4c\	.	.	.	.
2C/	.	1c\	.	.	.	.
=98-	=98-	=98-	=98-	=98-	=98-	=98-
0GG	.	.	.	.	.	.
!	!	!LO:TX:a:t=P:problem=# above	!	!	!	!
!	!	!LO:N:acc=#	!	!	!	!
.	.	4Bn\	.	.	.	.
.	.	4A\	.	.	.	.
=99-	=99-	=99-	=99-	=99-	=99-	=99-
!	!	!LO:TX:a:t=P:problem=# above	!	!	!	!
!	!	!LO:N:acc=#	!	!	!	!
.	.	1Bn	.	.	.	.
=100-	=100-	=100-	=100-	=100-	=100-	=100-
0C;>	-tur	0c;<	-tur	.	0G;>	-tur
!LO:LB:g=original	!	!	!	!	!	!
=101-	=101-	=101-	=101-	=101-	=101-	=101-
*k[b-]	*	*k[b-]	*	*	*k[b-]	*
*M4/4	*	*M4/4	*	*	*M4/4	*
*met(C)	*	*met(C)	*	*	*met(C)	*
!LO:TX:t=P:problem=brak zaznaczonego metrum	!	!	!	!	!LO:TX:t=P:problem=brak zaznaczonego metrum	!
1G	Quid	1d	Quid	.	1B-	Quid
=102-	=102-	=102-	=102-	=102-	=102-	=102-
1D	ſum	1d	ſum	.	1A	ſum
=103-	=103-	=103-	=103-	=103-	=103-	=103-
1G	mi-	2.d\	mi-	.	1B-	mi-
.	.	4c\	.	.	.	.
=104-	=104-	=104-	=104-	=104-	=104-	=104-
1G	-ſer	2B-\	.	.	1G	-ſer
.	.	2B-\	-ſer	.	.	.
=105-	=105-	=105-	=105-	=105-	=105-	=105-
2r	.	2r	.	.	1A	tunc
1F\	tunc	1c\	tunc	.	.	.
=106-	=106-	=106-	=106-	=106-	=106-	=106-
.	.	.	.	.	1F	dic-
!	!	!LO:N:acc=#	!	!	!	!
!	!	!LO:TX:a:t=P:problem=# above	!	!	!	!
2D/	dic-	2Bn\	dic-	.	.	.
=107-	=107-	=107-	=107-	=107-	=107-	=107-
1C	-tu-	1c	-tu-	.	1G	-tu-
=108-	=108-	=108-	=108-	=108-	=108-	=108-
1C	-rus	1c	-rus	.	1G	-rus
!	!	!	!LO:LB:g=original	!	!	!
=109-	=109-	=109-	=109-	=109-	=109-	=109-
!	!	!LO:TX:t=P:problem=brakująca pauza?	!	!	!	!
2r	.	2ryy	.	.	1B-	quem
1BB-/	quem	2F/	quem	.	.	.
=110-	=110-	=110-	=110-	=110-	=110-	=110-
*	*	*	*	*	*lig	*
.	.	2F/	pa-	.	1B-	Pa-
2BB-/	pa-	1B-y\	-tro-	.	.	.
=111-	=111-	=111-	=111-	=111-	=111-	=111-
1FF	-tro-	.	.	.	1c	.
.	.	2A\	-num	.	.	.
!	!	!	!	!	!LO:PB:g=original	!
*	*	*	*	*	*Xlig	*
=112-	=112-	=112-	=112-	=112-	=112-	=112-
*	*	*	*	*	*lig	*
1BB-	-num	2B-\	.	.	1B-	-tro-
.	.	2d\	ro-	.	.	.
=113-	=113-	=113-	=113-	=113-	=113-	=113-
1F	ro-	1c	-ga-	.	1A	.
*	*	*	*	*	*Xlig	*
=114-	=114-	=114-	=114-	=114-	=114-	=114-
*	*	*	*	*	*lig	*
1C	-ga-	2.c\	-tu-	.	1G	-num
.	.	4B-\	.	.	.	.
=115-	=115-	=115-	=115-	=115-	=115-	=115-
0D	.	4A\	.	.	1F	.
.	.	4G\	.	.	.	.
.	.	2F/	.	.	.	.
*	*	*	*	*	*Xlig	*
=116-	=116-	=116-	=116-	=116-	=116-	=116-
.	.	2.f\	.	.	1A	ro-
.	.	4e\	.	.	.	.
=117-	=117-	=117-	=117-	=117-	=117-	=117-
1GG	.	0d\	.	.	1B-	-ga-
.	.	.	.	.	.	.
=118-	=118-	=118-	=118-	=118-	=118-	=118-
1D	-tu-	.	.	.	1A	-tu-
*custos:GG	*	*	*	*	*	*
!LO:LB:g=original	!	!	!	!	!	!
=119-	=119-	=119-	=119-	=119-	=119-	=119-
1GG	-rus	1B-	-rus	.	1G	-rus
=120-	=120-	=120-	=120-	=120-	=120-	=120-
2r	.	2r	.	.	1D	dum
1D\	dum	1A\	dum	.	.	.
=121-	=121-	=121-	=121-	=121-	=121-	=121-
*	*	*	*	*	*lig	*
.	.	.	.	.	1F	Vix
!	!	!LO:TX:a:t=P:problem=# above	!	!	!	!
!	!	!LO:N:acc=#	!	!	!	!
2D/	Vix	2Bn\	.	.	.	.
=122-	=122-	=122-	=122-	=122-	=122-	=122-
4C/	iu-	1.c	Vix	.	1G	.
4D/	.	.	.	.	.	.
4E\	.	.	.	.	.	.
4F\	.	.	.	.	.	.
*	*	*	*	*	*Xlig	*
=123-	=123-	=123-	=123-	=123-	=123-	=123-
1G	.	.	.	.	1G	iu-
!	!	!LO:N:acc=#	!	!	!	!
!	!	!LO:TX:a:t=P:problem=# above	!	!	!	!
.	.	2Bn\	iu-	.	.	.
=124-	=124-	=124-	=124-	=124-	=124-	=124-
*	*	*	*	*	*lig	*
1C	-ſtus	1c	-ſtus	.	1G	-ſtus
=125-	=125-	=125-	=125-	=125-	=125-	=125-
2r	.	1A	.	.	1F	.
1F\	ſit	.	.	.	.	.
*	*	*	*	*	*Xlig	*
=126-	=126-	=126-	=126-	=126-	=126-	=126-
.	.	2F/	ſit	.	1A	ſit
2F\	ſe-	2.A/	ſe-	.	.	.
=127-	=127-	=127-	=127-	=127-	=127-	=127-
2.BB-/	-cu-	.	.	.	1B-	ſe-
.	.	4G/	.	.	.	.
*	*	*custos:G	*	*	*	*
!	!	!LO:LB:g=original	!	!	!	!
.	.	1G/	.	.	.	.
4C/	.	.	.	.	.	.
=128-	=128-	=128-	=128-	=128-	=128-	=128-
1D	.	.	.	.	1A	-cu-
.	.	2F#X/	-cu-	.	.	.
=129-	=129-	=129-	=129-	=129-	=129-	=129-
!	!	!	!	!	!LO:TX:t=P:problem=podwójna kreska pseudotaktowa	!
0GG;>	-rus	0G;<	-rus	.	0G;>	-rus
!LO:PB:g=original	!	!	!	!	!LO:LB:g=original	!
=130-	=130-	=130-	=130-	=130-	=130-	=130-
*k[b-]	*	*k[b-]	*	*	*k[b-]	*
*M4/4	*	*M4/4	*	*	*M4/4	*
*met(C)	*	*met(C)	*	*	*met(C)	*
1r	.	0r	.	.	1d	Re-
=131-	=131-	=131-	=131-	=131-	=131-	=131-
1D	Re-	.	.	.	1f	-cor-
=132-	=132-	=132-	=132-	=132-	=132-	=132-
*	*	*	*	*	*lig	*
1F	-cor-	1A	Re-	.	1f	-da-
=133-	=133-	=133-	=133-	=133-	=133-	=133-
0C	-da-	1c	-cor-	.	1e	.
*	*	*	*	*	*Xlig	*
=134-	=134-	=134-	=134-	=134-	=134-	=134-
.	.	2.G/	-da-	.	1c	.
.	.	4A/	.	.	.	.
=135-	=135-	=135-	=135-	=135-	=135-	=135-
2GG/	-re	2.B-\	-re	.	1d	-re
2.G\	Je-	.	.	.	.	.
.	.	4c\	.	.	.	.
=136-	=136-	=136-	=136-	=136-	=136-	=136-
*	*	*	*	*	*lig	*
.	.	1d	.	.	1d	Je-
4A\	.	.	.	.	.	.
2B-\	.	.	.	.	.	.
=137-	=137-	=137-	=137-	=137-	=137-	=137-
!	!	!LO:TX:t=P:rytm:problem	!	!	!	!
!	!	!LO:N:vis=1	!	!	!	!
1F	-ſu	2B-/	.	.	1c	.
.	.	2A/	.	.	.	.
*	*	*	*	*	*Xlig	*
=138-	=138-	=138-	=138-	=138-	=138-	=138-
*lig	*	*	*	*	*	*
1G	pi-	4G/	Je-	.	1B-	-ſu
.	.	4A/	.	.	.	.
.	.	1B-\	-ſu	.	.	.
=139-	=139-	=139-	=139-	=139-	=139-	=139-
*	*	*	*	*	*lig	*
1F	.	.	.	.	1c	pi-
.	.	2A/	pi-	.	.	.
*Xlig	*	*	*	*	*	*
=140-	=140-	=140-	=140-	=140-	=140-	=140-
0BB-	-e	0B-	-e	.	1d	.
*	*	*	*	*	*Xlig	*
=141-	=141-	=141-	=141-	=141-	=141-	=141-
*	*	*	*	*	*lig	*
.	.	.	.	.	1d	-e
=142-	=142-	=142-	=142-	=142-	=142-	=142-
2r	.	2r	.	.	1G	.
1E-X\	quod	1B-\	quod	.	.	.
*	*	*	*	*	*Xlig	*
=143-	=143-	=143-	=143-	=143-	=143-	=143-
.	.	.	.	.	1B-	quod
2G\	-ſum	2B-\	-ſum	.	.	.
=144-	=144-	=144-	=144-	=144-	=144-	=144-
1F	cau-	1c	cau-	.	1A	-ſum
!	!	!LO:LB:g=original	!	!	!	!
=145-	=145-	=145-	=145-	=145-	=145-	=145-
1BB-	-ſa	1d	-ſa	.	1B-	cau-
=146-	=146-	=146-	=146-	=146-	=146-	=146-
1.C	tu-	2c\	tu-	.	1G	-ſa
.	.	2G/	-ae	.	.	.
=147-	=147-	=147-	=147-	=147-	=147-	=147-
.	.	1.c	vi-	.	1A	tu-
2C/	-ae	.	.	.	.	.
=148-	=148-	=148-	=148-	=148-	=148-	=148-
1D	vi-	.	.	.	1F	-ae
!	!	!LO:TX:a:t=P:problem=# above	!	!	!	!
!	!	!LO:N:acc=#	!	!	!	!
.	.	2Bn\	.	.	.	.
=149-	=149-	=149-	=149-	=149-	=149-	=149-
0C	-ae	0c	-ae	.	1G	Vi-
=150-	=150-	=150-	=150-	=150-	=150-	=150-
.	.	.	.	.	1G	-ae
*custos:G	*	*	*	*	*	*
!LO:LB:g=original	!	!	!	!	!	!
=151-	=151-	=151-	=151-	=151-	=151-	=151-
2G\	ne	2r	.	.	1B-	ne
2G\	me	1B-y\	ne	.	.	.
*	*	*	*	*	*custos:c	*
!	!	!	!	!	!LO:LB:g=original	!
=152-	=152-	=152-	=152-	=152-	=152-	=152-
*	*	*	*	*	*lig	*
2.F\	per-	.	.	.	1c	me
.	.	2A\	me	.	.	.
4Eny\	.	.	.	.	.	.
=153-	=153-	=153-	=153-	=153-	=153-	=153-
4D\	.	2B-\	per-	.	1d	.
4C\	.	.	.	.	.	.
1BB-/	.	4f\	.	.	.	.
.	.	4e\	.	.	.	.
*	*	*	*	*	*Xlig	*
=154-	=154-	=154-	=154-	=154-	=154-	=154-
*	*	*	*	*	*lig	*
.	.	4d\	.	.	1d	per-
.	.	4c\	.	.	.	.
2BB-/	-das	1B-\	.	.	.	.
=155-	=155-	=155-	=155-	=155-	=155-	=155-
1FF	il-	.	.	.	1c	.
.	.	1A\	.	.	.	.
*	*	*	*	*	*Xlig	*
=156-	=156-	=156-	=156-	=156-	=156-	=156-
1GG	-la	.	.	.	1B-	-das
.	.	1G/	.	.	.	.
=157-	=157-	=157-	=157-	=157-	=157-	=157-
*lig	*	*	*	*	*lig	*
1D	d[i]-	.	.	.	1A	.
.	.	2F#X/	.	.	.	.
=158-	=158-	=158-	=158-	=158-	=158-	=158-
!LO:TX:a:t=P:problem=♭ above	!	!	!	!	!	!
1E-X	.	1G	.	.	1G	.
*Xlig	*	*	*	*	*Xlig	*
=159-	=159-	=159-	=159-	=159-	=159-	=159-
2D/	.	1A	-das	.	1F	.
1D\	.	.	.	.	.	.
=160-	=160-	=160-	=160-	=160-	=160-	=160-
.	.	2d\	il-	.	1A	il-
2C/	.	2e\	-la	.	.	.
=161-	=161-	=161-	=161-	=161-	=161-	=161-
2BB-/	.	0d	di-	.	1B-	-la
2GG/	.	.	.	.	.	.
=162-	=162-	=162-	=162-	=162-	=162-	=162-
1D	.	.	.	.	1A	di-
=163-	=163-	=163-	=163-	=163-	=163-	=163-
!	!	!LO:TX:a:t=P:problem=# above	!	!	!	!
!	!	!LO:N:acc=#	!	!	!	!
0GG;>	-e	0Bn;<	-e	.	0G;>	-e
!LO:LB:g=original	!	!LO:LB:g=original	!	!	!	!
=164-	=164-	=164-	=164-	=164-	=164-	=164-
*k[b-]	*	*k[b-]	*	*	*k[b-]	*
*M4/4	*	*M4/4	*	*	*M4/4	*
*met(C)	*	*met(C)	*	*	*met(C)	*
*lig	*	*lig	*	*	*	*
!	!	!	!	!	!LO:TX:t=P:problem=brak zaznaczonego metrum	!
!	!	!	!	!	!LO:TX:b:t=Juſte	!
1BB-	In-	1B-	Iu-	In-	1d	In-
=165-	=165-	=165-	=165-	=165-	=165-	=165-
*	*	*	*	*	*lig	*
1F	.	1A	.	.	1c	-ge-
*Xlig	*	*Xlig	*	*	*	*
=166-	=166-	=166-	=166-	=166-	=166-	=166-
1G	-ge-	1G	-ſte	-ge-	1B-	.
*	*	*	*	*	*Xlig	*
=167-	=167-	=167-	=167-	=167-	=167-	=167-
*	*	*	*	*	*lig	*
2.F\	.	4A\	iu-	-mi-	1c	-mi-
.	.	4B-\	.	.	.	.
.	.	1c\	.	.	.	.
4E\	.	.	.	.	.	.
=168-	=168-	=168-	=168-	=168-	=168-	=168-
1D	.	.	.	.	1d	.
!	!	!LO:TX:a:t=P:problem=# above	!	!	!	!
!	!	!LO:N:acc=#	!	!	!	!
.	.	2Bn\	-dex	-ſco	.	.
*	*	*	*	*	*Xlig	*
=169-	=169-	=169-	=169-	=169-	=169-	=169-
1C	.	1c	.	.	1G	-ſco
=170-	=170-	=170-	=170-	=170-	=170-	=170-
*	*	*	*	*	*lig	*
1C	-miſ-	2.c\	Ul.-	tan-	1G	tan-
.	.	4B-y\	.	.	.	.
=171-	=171-	=171-	=171-	=171-	=171-	=171-
1FF	-co	4A\	.	.	1F	.
.	.	4G\	.	.	.	.
.	.	2A\	.	.	.	.
*	*	*	*	*	*Xlig	*
=172-	=172-	=172-	=172-	=172-	=172-	=172-
2.BB-/	tan-	2B-\	-ti-	-quam	1D	-quam
.	.	2.d\	-o-	re-	.	.
4C/	-quam	.	.	.	.	.
=173-	=173-	=173-	=173-	=173-	=173-	=173-
*	*	*	*	*	*lig	*
1D	re-	.	.	.	1F	re-
.	.	4c\	.	.	.	.
.	.	4A\	.	.	.	.
.	.	4B-\	.	.	.	.
=174-	=174-	=174-	=174-	=174-	=174-	=174-
1C	-us	1c	.	.	1G	.
*	*	*	*	*	*Xlig	*
=175-	=175-	=175-	=175-	=175-	=175-	=175-
2r	.	1B-	-nis	-us	1G	-us
2.GG/	cul-	.	.	.	.	.
*	*	*	*	*	*custos:B-	*
!	!	!	!	!	!LO:LB:g=original	!
=176-	=176-	=176-	=176-	=176-	=176-	=176-
*	*	*	*	*	*lig	*
.	.	1.d	do-	cul-	1B-	cul-
4AA/	.	.	.	.	.	.
4BB-/	.	.	.	.	.	.
4C/	.	.	.	.	.	.
=177-	=177-	=177-	=177-	=177-	=177-	=177-
4D\	.	.	.	.	1A	.
4E\	.	.	.	.	.	.
2F\	.	2c\	-nun	-pa	.	.
*	*	*	*	*	*Xlig	*
=178-	=178-	=178-	=178-	=178-	=178-	=178-
1C	-pa	2.c\	fac	ru-	1G	-pa
.	.	4B-\	.	.	.	.
*custos:D	*	*	*	*	*	*
!LO:LB:g=original	!	!	!	!	!	!
=179-	=179-	=179-	=179-	=179-	=179-	=179-
2.D/	ru-	4A\	.	.	1F	ru-
.	.	4G\	.	.	.	.
.	.	1F/	.	-bet	.	.
4C/	-bet	.	.	.	.	.
=180-	=180-	=180-	=180-	=180-	=180-	=180-
1.BB-	vul-	.	.	.	1D	-bet
*	*	*custos:B-	*	*	*	*
!	!	!LO:PB:g=original	!	!	!	!
.	.	2B-\	re-	Vul-	.	.
=181-	=181-	=181-	=181-	=181-	=181-	=181-
.	.	2d\	.	-tus	1F	vul-
2AA/	-tus	2c\	.	.	.	.
=182-	=182-	=182-	=182-	=182-	=182-	=182-
0GG	me-	2.B-\	-miſ-	me-	1G	-tus
.	.	4A\	.	.	.	.
=183-	=183-	=183-	=183-	=183-	=183-	=183-
.	.	4G/	.	.	1B-	me-
.	.	4F/	.	.	.	.
.	.	2G/	-si-	.	.	.
=184-	=184-	=184-	=184-	=184-	=184-	=184-
!	!	!LO:TX:b:t=P:problem=# below	!	!	!	!
*	*	*	*	*	*lig	*
0D	-us	2.F#X/	-o-	.	1A	.
.	.	4G/	.	.	.	.
=185-	=185-	=185-	=185-	=185-	=185-	=185-
.	.	1A	-nis	-us	1F	.
*	*	*	*	*	*Xlig	*
=186-	=186-	=186-	=186-	=186-	=186-	=186-
2r	.	2r	.	.	1G	-us
1G\	ſup-	1B-\	an-	ſup-	.	.
=187-	=187-	=187-	=187-	=187-	=187-	=187-
.	.	.	.	.	1d	ſup-
2G\	-pli-	2B-\	-te	-pli-	.	.
=188-	=188-	=188-	=188-	=188-	=188-	=188-
1G	-can-	2d\	di-	-can-	1B-	-pli-
.	.	2d\	-em	-ti	.	.
=189-	=189-	=189-	=189-	=189-	=189-	=189-
0C	-ti	2.e#X\	ra-	par-	1c	-can-
.	.	4d\	-ti-	.	.	.
=190-	=190-	=190-	=190-	=190-	=190-	=190-
.	.	1.c	-o-	.	1G	-ti
=191-	=191-	=191-	=191-	=191-	=191-	=191-
1D	par-	.	.	.	1F	par-
!	!	!LO:TX:a:t=P:problem=# above	!	!	!	!
!	!	!LO:N:acc=#	!	!	!	!
.	.	2Bn\	-nis	-ce	.	.
=192-	=192-	=192-	=192-	=192-	=192-	=192-
1C	-ce	1c	an-	De-	1G	-ce
=193-	=193-	=193-	=193-	=193-	=193-	=193-
*	*	*	*	*	*lig	*
4BB-/	De-	1d	.	.	1B-	De-
4C/	.	.	.	.	.	.
4D/	.	.	.	.	.	.
4E\	.	.	.	.	.	.
=194-	=194-	=194-	=194-	=194-	=194-	=194-
2.F\	.	2c\	-te	.	1A	.
.	.	2.f\	di-	.	.	.
4E\	.	.	.	.	.	.
*	*	*	*	*	*Xlig	*
=195-	=195-	=195-	=195-	=195-	=195-	=195-
2.D/	.	.	.	.	1F	.
.	.	4eny\	-em	.	.	.
*	*	*custos:d	*	*	*	*
!	!	!LO:LB:g=original	!	!	!	!
.	.	2.d\	ra-	.	.	.
4C/	.	.	.	.	.	.
=196-	=196-	=196-	=196-	=196-	=196-	=196-
!LO:N:acc=#	!	!	!	!	!	!
!LO:TX:b:t=P:problem=# below	!	!	!	!	!	!
2BBn/	.	.	.	.	0.G	.
.	.	4c\	-ti-	.	.	.
2C/	.	1c\	-o-	.	.	.
=197-	=197-	=197-	=197-	=197-	=197-	=197-
0GG	.	.	.	.	.	.
.	.	4B-y\	.	.	.	.
.	.	4A\	.	.	.	.
=198-	=198-	=198-	=198-	=198-	=198-	=198-
!	!	!LO:N:acc=#	!	!	!	!
!	!	!LO:TX:a:t=P:problem=# above	!	!	!	!
.	.	1Bn	.	.	.	.
=199-	=199-	=199-	=199-	=199-	=199-	=199-
0C;>	-us	0c;<	-nis	-us	0G;<	-us
!LO:LB:g=original	!	!	!	!	!LO:LB:g=original	!
=200-	=200-	=200-	=200-	=200-	=200-	=200-
*k[b-]	*	*k[b-]	*	*	*k[b-]	*
*M4/4	*	*M4/4	*	*	*M4/4	*
*met(C)	*	*met(C)	*	*	*met(C)	*
!LO:TX:t=P:problem=brak zaznaczonego metrum	!	!	!	!	!	!
1G	Qui	1d	Qui	.	1B-	Qui
=201-	=201-	=201-	=201-	=201-	=201-	=201-
1D	ma-	1d	Ma-	.	1A	ma-
=202-	=202-	=202-	=202-	=202-	=202-	=202-
1G	-ri-	2.d\	-ri-	.	1B-	-ri-
.	.	4c\	.	.	.	.
=203-	=203-	=203-	=203-	=203-	=203-	=203-
1G	-am	2B-\	.	.	1G	-am
.	.	2B-\	-am	.	.	.
=204-	=204-	=204-	=204-	=204-	=204-	=204-
2r	.	2r	.	.	1A	ab-
1F\	ab-	1c\	ab-	.	.	.
=205-	=205-	=205-	=205-	=205-	=205-	=205-
.	.	.	.	.	1F	-ſol-
!	!	!LO:N:acc=#	!	!	!	!
!	!	!LO:TX:a:t=P:problem=# above	!	!	!	!
2D/	-ſol-	2Bn\	-ſol-	.	.	.
=206-	=206-	=206-	=206-	=206-	=206-	=206-
1C	-vi-	1c	-vi-	.	1G	-vi-
=207-	=207-	=207-	=207-	=207-	=207-	=207-
1C	-sti	1c	-ſti	.	1G	-ſti
=208-	=208-	=208-	=208-	=208-	=208-	=208-
2r	.	2r	.	.	1B-	et
1BB-/	et	2F/	et	.	.	.
=209-	=209-	=209-	=209-	=209-	=209-	=209-
*	*	*	*	*	*lig	*
.	.	2F/	la-	.	1B-	la-
*	*	*custos:B-	*	*	*	*
!	!	!LO:LB:g=original	!	!	!	!
2GG/	la-	1B-\	-tro-	.	.	.
=210-	=210-	=210-	=210-	=210-	=210-	=210-
1FF	-tro-	.	.	.	1c	.
.	.	2A\	.	.	.	.
*	*	*	*	*	*Xlig	*
=211-	=211-	=211-	=211-	=211-	=211-	=211-
*	*	*	*	*	*lig	*
1BB-	-nem	2B-\	-nem	.	1B-	-tro-
.	.	2d\	e-	.	.	.
=212-	=212-	=212-	=212-	=212-	=212-	=212-
1F	e-	1c	-xau-	.	1A	.
*	*	*	*	*	*Xlig	*
=213-	=213-	=213-	=213-	=213-	=213-	=213-
*	*	*	*	*	*lig	*
1C	-xau-	2.c\	-di-	.	1G	-nem
.	.	4B-\	.	.	.	.
=214-	=214-	=214-	=214-	=214-	=214-	=214-
2.D/	-di-	2A\	.	.	1F	.
.	.	2d\	.	.	.	.
4E\	.	.	.	.	.	.
*	*	*	*	*	*Xlig	*
=215-	=215-	=215-	=215-	=215-	=215-	=215-
2F\	.	1c	.	.	1A	e-
2FF/	.	.	.	.	.	.
=216-	=216-	=216-	=216-	=216-	=216-	=216-
2.BB-/	.	0d	.	.	1B-	-xau-
4C/	.	.	.	.	.	.
*custos:D	*	*	*	*	*	*
!LO:LB:g=original	!	!	!	!	!	!
=217-	=217-	=217-	=217-	=217-	=217-	=217-
1D	.	.	.	.	1A	-di-
=218-	=218-	=218-	=218-	=218-	=218-	=218-
1GG	-ſti	1B-	-ſti	.	1G	-ſti
=219-	=219-	=219-	=219-	=219-	=219-	=219-
2r	.	2r	.	.	1D	mi-
1D\	mi-	1A\	mi-	.	.	.
=220-	=220-	=220-	=220-	=220-	=220-	=220-
*	*	*	*	*	*lig	*
.	.	.	.	.	1F	-hi
!	!	!LO:N:acc=#	!	!	!	!
2D/	-hi	2Bn\	-hi	.	.	.
=221-	=221-	=221-	=221-	=221-	=221-	=221-
*lig	*	*	*	*	*	*
1C	quo-	1.c	quo-	.	1G	.
*	*	*	*	*	*custos:G	*
!	!	!	!	!	!LO:LB:g=original	!
*	*	*	*	*	*Xlig	*
=222-	=222-	=222-	=222-	=222-	=222-	=222-
1GG	.	.	.	.	1G	quo-
!	!	!LO:N:acc=#	!	!	!	!
.	.	2Bn\	-que	.	.	.
*Xlig	*	*	*	*	*	*
=223-	=223-	=223-	=223-	=223-	=223-	=223-
*	*	*	*	*	*lig	*
1C	-que	1c	ſpem	.	1G	-q(ue)
=224-	=224-	=224-	=224-	=224-	=224-	=224-
2r	.	1A	.	.	1F	.
1F\	ſpem	.	.	.	.	.
*	*	*	*	*	*Xlig	*
=225-	=225-	=225-	=225-	=225-	=225-	=225-
.	.	2c\	de-	.	1A	ſpem
2F\	de-	2.A/	-di-	.	.	.
=226-	=226-	=226-	=226-	=226-	=226-	=226-
*lig	*	*	*	*	*	*
1G	-di-	.	.	.	1B-	de-
.	.	4G/	.	.	.	.
.	.	1G/	-ſti	.	.	.
=227-	=227-	=227-	=227-	=227-	=227-	=227-
1D	.	.	.	.	1A	-di-
!	!	!LO:TX:a:t=P:problem=# above	!	!	!	!
.	.	2F#X/	.	.	.	.
*Xlig	*	*	*	*	*	*
=228-	=228-	=228-	=228-	=228-	=228-	=228-
0GG;>	-ſti	1G;>	.	.	0G;>	-ſti
=229-	=229-	=229-	=229-	=229-	=229-	=229-
.	.	1ryy	.	.	.	.
!LO:LB:g=original	!	!LO:LB:g=original	!	!	!	!
=230-	=230-	=230-	=230-	=230-	=230-	=230-
*k[b-]	*	*k[b-]	*	*	*k[b-]	*
*M4/4	*	*M4/4	*	*	*M4/4	*
*met(C)	*	*met(C)	*	*	*met(C)	*
!LO:TX:t=P:problem=brak zaznaczonego metrum	!	!LO:TX:t=P:problem=brak zaznaczonego metrum	!	!	!	!
1r	.	0r	.	.	1d	In-
=231-	=231-	=231-	=231-	=231-	=231-	=231-
1D	In-	.	.	.	1f	-ter
=232-	=232-	=232-	=232-	=232-	=232-	=232-
1F	-ter	1A	In-	.	1f	o-
=233-	=233-	=233-	=233-	=233-	=233-	=233-
*	*	*	*	*	*lig	*
1.C	o-	1c	-ter	.	1e	-ves
=234-	=234-	=234-	=234-	=234-	=234-	=234-
.	.	2G/	o-	.	1c	.
2C/	ves	2A/	-ves	.	.	.
*	*	*	*	*	*Xlig	*
=235-	=235-	=235-	=235-	=235-	=235-	=235-
2GG/	lo-	2.B-\	lo-	.	1d	lo-
2.G\	.	.	.	.	.	.
.	.	4c\	.	.	.	.
=236-	=236-	=236-	=236-	=236-	=236-	=236-
*	*	*	*	*	*lig	*
.	.	2d\	.	.	1d	-cum
4A\	.	.	.	.	.	.
2B-\	.	1B-\	.	.	.	.
=237-	=237-	=237-	=237-	=237-	=237-	=237-
1F	-cum	.	.	.	1c	.
.	.	2A\	-cum	.	.	.
*	*	*	*	*	*Xlig	*
=238-	=238-	=238-	=238-	=238-	=238-	=238-
*lig	*	*	*	*	*	*
1G	prae-	4G\	prae-	.	1B-	.
.	.	4A\	.	.	.	.
.	.	1B-\	.	.	.	.
=239-	=239-	=239-	=239-	=239-	=239-	=239-
*	*	*	*	*	*lig	*
1F	.	.	.	.	1c	prae-
.	.	2A\	.	.	.	.
*Xlig	*	*	*	*	*	*
=240-	=240-	=240-	=240-	=240-	=240-	=240-
0BB-	-ſta	0B-	-ſta	.	1d	.
*	*	*	*	*	*custos:d	*
!	!	!	!	!	!LO:LB:g=original	!
*	*	*	*	*	*Xlig	*
=241-	=241-	=241-	=241-	=241-	=241-	=241-
*	*	*	*	*	*lig	*
.	.	.	.	.	1d	-ſta
=242-	=242-	=242-	=242-	=242-	=242-	=242-
2r	.	2r	.	.	1G	.
1E-X\	et	1B-\	et	.	.	.
*	*	*	*	*	*Xlig	*
=243-	=243-	=243-	=243-	=243-	=243-	=243-
.	.	.	.	.	1B-	et
2G\	ab	2B-\	ab	.	.	.
=244-	=244-	=244-	=244-	=244-	=244-	=244-
1F	hae-	1c	hae-	.	1A	ab
=245-	=245-	=245-	=245-	=245-	=245-	=245-
1BB-	-dis	1d	-dis	.	1B-	hae-
=246-	=246-	=246-	=246-	=246-	=246-	=246-
1.C	me	2c\	me	.	1G	-dis
.	.	2G\	.	.	.	.
=247-	=247-	=247-	=247-	=247-	=247-	=247-
.	.	1.c	-ſe-	.	1A	me
2C/	-ſe-	.	.	.	.	.
=248-	=248-	=248-	=248-	=248-	=248-	=248-
1D	-que-	.	.	.	1F	-ſe-
!	!	!LO:TX:a:t=P:problem=# above	!	!	!	!
!	!	!LO:N:acc=#	!	!	!	!
.	.	2Bn\	-que-	.	.	.
!LO:LB:g=original	!	!	!	!	!	!
=249-	=249-	=249-	=249-	=249-	=249-	=249-
0C	-ſtra	0c	-ſtra	.	1G	-queſ-
!	!	!LO:LB:g=original	!	!	!	!
=250-	=250-	=250-	=250-	=250-	=250-	=250-
.	.	.	.	.	1G	-tra
=251-	=251-	=251-	=251-	=251-	=251-	=251-
2G\	-ſta-	2r	.	.	1B-	-ſta-
2G\	-tu-	1B-y\	-ſta-	.	.	.
=252-	=252-	=252-	=252-	=252-	=252-	=252-
2.F\	-ens	.	.	.	1c	-tu-
.	.	2A/	-tu-	.	.	.
4Eny\	.	.	.	.	.	.
=253-	=253-	=253-	=253-	=253-	=253-	=253-
4D/	.	2B-\	-ens	.	1d	-ens
4C/	.	.	.	.	.	.
1BB-/	.	4f\	in	.	.	.
.	.	4e\	.	.	.	.
=254-	=254-	=254-	=254-	=254-	=254-	=254-
*	*	*	*	*	*lig	*
.	.	4d\	par-	.	1d	in
.	.	4c\	.	.	.	.
2BB-/	in	1B-\	.	.	.	.
=255-	=255-	=255-	=255-	=255-	=255-	=255-
1FF	par-	.	.	.	1c	.
.	.	1A\	.	.	.	.
*	*	*	*	*	*Xlig	*
=256-	=256-	=256-	=256-	=256-	=256-	=256-
*	*	*	*	*	*lig	*
1GG	-te	.	.	.	1B-	par-
.	.	1G/	.	.	.	.
=257-	=257-	=257-	=257-	=257-	=257-	=257-
*lig	*	*	*	*	*	*
1D	dex-	.	.	.	1A	.
!	!	!LO:TX:b:t=P:problem=# below	!	!	!	!
.	.	2F#X/	.	.	.	.
*	*	*	*	*	*Xlig	*
=258-	=258-	=258-	=258-	=258-	=258-	=258-
*	*	*	*	*	*lig	*
!LO:TX:a:t=P:problem=♭ above	!	!	!	!	!	!
1E-X	.	1G	.	.	1G	-te
*Xlig	*	*	*	*	*	*
=259-	=259-	=259-	=259-	=259-	=259-	=259-
2.D/	.	2A/	.	.	1F	.
.	.	1d\	.	.	.	.
4D/	.	.	.	.	.	.
*	*	*	*	*	*Xlig	*
=260-	=260-	=260-	=260-	=260-	=260-	=260-
2D/	.	.	.	.	1A	dex-
2C/	.	2e\	-te	.	.	.
=261-	=261-	=261-	=261-	=261-	=261-	=261-
2BB-/	.	0d	dex-	.	1B-	.
2GG/	.	.	.	.	.	.
=262-	=262-	=262-	=262-	=262-	=262-	=262-
1D	.	.	.	.	1A	.
=263-	=263-	=263-	=263-	=263-	=263-	=263-
0GG;>	-tra	0B-;>	-tra	.	0G;>	-tra
!LO:PB:g=original	!	!LO:LB:g=original	!	!	!LO:LB:g=original	!
=264-	=264-	=264-	=264-	=264-	=264-	=264-
*k[b-]	*	*k[b-]	*	*	*k[b-]	*
*M4/4	*	*M4/4	*	*	*M4/4	*
*met(C)	*	*met(C)	*	*	*met(C)	*
!	!	!LO:TX:t=P:problem=brak zaznaczonego metrum	!	!	!	!
1BB-	O-	1B-	O-	.	1d	O-
=265-	=265-	=265-	=265-	=265-	=265-	=265-
*lig	*	*lig	*	*	*lig	*
1F	.	1A	ro	.	1c	-ro
=266-	=266-	=266-	=266-	=266-	=266-	=266-
1G	.	1G	.	.	1B-	.
*Xlig	*	*Xlig	*	*	*Xlig	*
=267-	=267-	=267-	=267-	=267-	=267-	=267-
*	*	*	*	*	*lig	*
2.F\	.	4A\	-ſup-	.	1c	-ſup-
.	.	4B-\	.	.	.	.
.	.	1c\	.	.	.	.
4E\	.	.	.	.	.	.
=268-	=268-	=268-	=268-	=268-	=268-	=268-
1D	.	.	.	.	1d	.
!	!	!LO:N:acc=#	!	!	!	!
.	.	2Bn\	.	.	.	.
*	*	*	*	*	*Xlig	*
=269-	=269-	=269-	=269-	=269-	=269-	=269-
2C/	-ro	1c	-plex	.	1G	-plex
2.C/	ſup-	.	.	.	.	.
=270-	=270-	=270-	=270-	=270-	=270-	=270-
*	*	*	*	*	*lig	*
.	.	2.c\	et	.	1G	et
4D/	.	.	.	.	.	.
2E\	.	.	.	.	.	.
.	.	4B-y\	.	.	.	.
=271-	=271-	=271-	=271-	=271-	=271-	=271-
1F	-plex	4A\	.	.	1F	.
.	.	4G\	.	.	.	.
.	.	2A\	ac-	.	.	.
*	*	*	*	*	*Xlig	*
=272-	=272-	=272-	=272-	=272-	=272-	=272-
2.BB-/	et	2B-\	-cli-	.	1D	ac-
.	.	2.d\	.	.	.	.
4C/	ac-	.	.	.	.	.
=273-	=273-	=273-	=273-	=273-	=273-	=273-
*	*	*	*	*	*lig	*
1D	-cli-	.	.	.	1F	-cli-
.	.	4c\	.	.	.	.
.	.	4A\	.	.	.	.
.	.	4B-\	.	.	.	.
=274-	=274-	=274-	=274-	=274-	=274-	=274-
1C	-nis	1c	-nis	.	1G	.
*	*	*	*	*	*Xlig	*
=275-	=275-	=275-	=275-	=275-	=275-	=275-
2r	.	1B-	.	.	1G	-nis
1GG/	cor	.	.	.	.	.
=276-	=276-	=276-	=276-	=276-	=276-	=276-
*	*	*	*	*	*lig	*
.	.	2G/	.	.	1B-	cor
2BB-/	con-	2D/	cor	.	.	.
=277-	=277-	=277-	=277-	=277-	=277-	=277-
1FF	-tri-	1F	.	.	1A	.
*	*	*	*	*	*Xlig	*
=278-	=278-	=278-	=278-	=278-	=278-	=278-
1GG	-tum	2D/	con-	.	1G	con-
.	.	4D/	-tri-	.	.	.
.	.	4E/	.	.	.	.
=279-	=279-	=279-	=279-	=279-	=279-	=279-
2.D/	qua-	4F/	.	.	1F	-tri-
.	.	4G/	.	.	.	.
*	*	*custos:A	*	*	*	*
!	!	!LO:LB:g=original	!	!	!	!
.	.	2A/	-tum	.	.	.
4C/	.	.	.	.	.	.
*custos:BB-	*	*	*	*	*	*
!LO:LB:g=original	!	!	!	!	!	!
=280-	=280-	=280-	=280-	=280-	=280-	=280-
1.BB-	.	1.d	qua-	.	1D	-tum
=281-	=281-	=281-	=281-	=281-	=281-	=281-
.	.	.	.	.	1F	qua-
2AA/	-ſi	2c\	.	.	.	.
=282-	=282-	=282-	=282-	=282-	=282-	=282-
*	*	*	*	*	*lig	*
0GG	ci-	2.B-\	-ſi	.	1G	-ſi
.	.	4A\	ci-	.	.	.
=283-	=283-	=283-	=283-	=283-	=283-	=283-
.	.	1G	.	.	1B-	.
*	*	*	*	*	*Xlig	*
=284-	=284-	=284-	=284-	=284-	=284-	=284-
0D	-nis	2.F/	.	.	1A	ci-
.	.	4G/	.	.	.	.
*	*	*	*	*	*custos:F	*
!	!	!	!	!	!LO:PB:g=original	!
=285-	=285-	=285-	=285-	=285-	=285-	=285-
*	*	*	*	*	*lig	*
.	.	1A	-nis	.	1F	-nis
=286-	=286-	=286-	=286-	=286-	=286-	=286-
2r	.	2r	.	.	1G	.
1G\	ge-	1B-\	ge-	.	.	.
*	*	*	*	*	*Xlig	*
=287-	=287-	=287-	=287-	=287-	=287-	=287-
.	.	.	.	.	1d	ge-
2G\	-re	2B-\	-re	.	.	.
=288-	=288-	=288-	=288-	=288-	=288-	=288-
1G	cu-	2d\	cu-	.	1B-	-re
.	.	2d\	-ram	.	.	.
=289-	=289-	=289-	=289-	=289-	=289-	=289-
0C	-ram	2.e\	me-	.	1c	cu-
.	.	4d\	.	.	.	.
=290-	=290-	=290-	=290-	=290-	=290-	=290-
.	.	1c	.	.	1G	-ram
=291-	=291-	=291-	=291-	=291-	=291-	=291-
1D	me-	2A\	.	.	1F	me-
!	!	!LO:TX:a:t=P:problem=# above	!	!	!	!
!	!	!LO:N:acc=#	!	!	!	!
.	.	2Bn\	.	.	.	.
=292-	=292-	=292-	=292-	=292-	=292-	=292-
1C	-i	1c	-i	.	1G	-i
=293-	=293-	=293-	=293-	=293-	=293-	=293-
*	*	*	*	*	*lig	*
4BB-/	fi-	1d	.	.	1B-	fi-
4C/	.	.	.	.	.	.
4D/	.	.	.	.	.	.
4E\	.	.	.	.	.	.
=294-	=294-	=294-	=294-	=294-	=294-	=294-
2F\	.	2.c\	fi-	.	1A	.
2.F\	.	.	.	.	.	.
.	.	4B-y\	.	.	.	.
*	*	*	*	*	*Xlig	*
=295-	=295-	=295-	=295-	=295-	=295-	=295-
.	.	2A\	.	.	1F	.
4E\	.	.	.	.	.	.
4D\	.	2.d\	.	.	.	.
4C\	.	.	.	.	.	.
=296-	=296-	=296-	=296-	=296-	=296-	=296-
!LO:N:acc=#	!	!	!	!	!	!
2BBn/	.	.	.	.	0.G	.
.	.	4d\	.	.	.	.
2C/	.	1c\	.	.	.	.
=297-	=297-	=297-	=297-	=297-	=297-	=297-
0GG	.	.	.	.	.	.
!	!	!LO:TX:a:t=P:problem=# above	!	!	!	!
!	!	!LO:N:acc=#	!	!	!	!
.	.	4Bn\	.	.	.	.
.	.	4A\	.	.	.	.
=298-	=298-	=298-	=298-	=298-	=298-	=298-
!	!	!LO:TX:a:t=P:problem=# above	!	!	!	!
!	!	!LO:N:acc=#	!	!	!	!
.	.	1Bn	.	.	.	.
=299-	=299-	=299-	=299-	=299-	=299-	=299-
!	!	!	!	!	!LO:TX:t=P:problem=podwójna kreska pseudotaktowa	!
0C;>	-nis	0c;<	-nis	.	0G;>	-nis
!LO:LB:g=original	!	!LO:LB:g=original	!	!	!	!
=300-	=300-	=300-	=300-	=300-	=300-	=300-
*k[b-]	*	*k[b-]	*	*	*k[b-]	*
*M4/4	*	*M4/4	*	*	*M4/4	*
*met(C)	*	*met(C)	*	*	*met(C)	*
!LO:TX:t=P:problem=brak zaznaczonego metrum	!	!LO:TX:t=P:problem=brak zaznaczonego metrum	!	!	!	!
00r	.	0r	.	.	1G	La-
=301-	=301-	=301-	=301-	=301-	=301-	=301-
.	.	.	.	.	1G	-chry-
=302-	=302-	=302-	=302-	=302-	=302-	=302-
*	*	*	*	*	*lig	*
.	.	2.D/	La-	.	1d	-mo-
.	.	4D/	-chry-	.	.	.
=303-	=303-	=303-	=303-	=303-	=303-	=303-
.	.	2G/	-mo-	.	1e	.
.	.	2A/	-ſa	.	.	.
*	*	*	*	*	*Xlig	*
=304-	=304-	=304-	=304-	=304-	=304-	=304-
0r	.	1B-	.	.	1d	-ſa
=305-	=305-	=305-	=305-	=305-	=305-	=305-
*	*	*	*	*	*lig	*
.	.	1A	.	.	1c	di-
=306-	=306-	=306-	=306-	=306-	=306-	=306-
2.GG/	La-	1.G	.	.	1B-	.
4GG/	-chri-	.	.	.	.	.
!	!	!	!	!	!LO:LB:g=original	!
*	*	*	*	*	*Xlig	*
=307-	=307-	=307-	=307-	=307-	=307-	=307-
*lig	*	*	*	*	*	*
1D	-mo-	.	.	.	1A	-es
!	!	!LO:TX:a:t=P:problem=# above	!	!	!	!
!	!	!LO:N:acc=#	!	!	!	!
.	.	2F#X/	.	.	.	.
=308-	=308-	=308-	=308-	=308-	=308-	=308-
!LO:TX:a:t=P:problem=♭ above	!	!	!	!	!	!
1E-X	.	1G	.	.	1c	il-
*Xlig	*	*	*	*	*	*
=309-	=309-	=309-	=309-	=309-	=309-	=309-
1D	-ſa	2A\	.	.	1d	-la
.	.	2.d\	di-	.	.	.
=310-	=310-	=310-	=310-	=310-	=310-	=310-
2.G\	di-	.	.	.	1B-	qua
.	.	4c\	-es	.	.	.
.	.	2B-\	.	.	.	.
4G\	-es	.	.	.	.	.
=311-	=311-	=311-	=311-	=311-	=311-	=311-
0F	il-	2d\	.	.	1A	re-
.	.	4c\	.	.	.	.
.	.	4B-\	.	.	.	.
=312-	=312-	=312-	=312-	=312-	=312-	=312-
.	.	4A\	.	.	1c	-ſur-
.	.	2B-\	il-	.	.	.
.	.	4A\	.	.	.	.
=313-	=313-	=313-	=313-	=313-	=313-	=313-
1BB-	-la	1B-	-la	.	1d	-get
=314-	=314-	=314-	=314-	=314-	=314-	=314-
2r	.	2r	.	.	1G	ex
2C/	qua	1G/	qua	.	.	.
=315-	=315-	=315-	=315-	=315-	=315-	=315-
*	*	*	*	*	*lig	*
2GG/	re-	.	.	.	1B-	.
4BB-/	-ſur-	2D/	re-	.	.	.
4C/	.	.	.	.	.	.
=316-	=316-	=316-	=316-	=316-	=316-	=316-
4D/	.	4Fny/	-ſur-	.	1A	.
4Eny\	.	4G/	.	.	.	.
2F\	.	4A/	.	.	.	.
.	.	4B-/	.	.	.	.
*	*	*custos:c	*	*	*	*
!	!	!LO:PB:g=original	!	!	!	!
*	*	*	*	*	*Xlig	*
=317-	=317-	=317-	=317-	=317-	=317-	=317-
*	*	*	*	*	*lig	*
1C	-get	4c\	.	.	1G	.
.	.	4d\	.	.	.	.
.	.	2e\	.	.	.	.
=318-	=318-	=318-	=318-	=318-	=318-	=318-
2.D/	ex	2d\	.	.	1F	.
.	.	2.A/	.	.	.	.
4C/	.	.	.	.	.	.
*	*	*	*	*	*Xlig	*
=319-	=319-	=319-	=319-	=319-	=319-	=319-
2BB-/	.	.	.	.	1B-	fa-
.	.	4G/	.	.	.	.
2GG/	.	1G/	-get	.	.	.
=320-	=320-	=320-	=320-	=320-	=320-	=320-
1D	fa-	.	.	.	1A	-vil-
!	!	!LO:TX:a:t=P:problem=# above	!	!	!	!
.	.	2F#X/	.	.	.	.
=321-	=321-	=321-	=321-	=321-	=321-	=321-
2GG/	-vil-	2G/	.	.	1G	-la
*custos:GG	*	*	*	*	*	*
!LO:LB:g=original	!	!	!	!	!	!
1GG/	-la	4G/	Ju-	.	.	.
.	.	4G/	-di-	.	.	.
=322-	=322-	=322-	=322-	=322-	=322-	=322-
.	.	2d\	-can-	.	1G	iu-
!LO:TX:t=P:problem=Brak sprecyzowanego tekstu, jest tylko znak	!	!	!	!	!	!
2GG/	[iu-	2d\	-dus	.	.	.
=323-	=323-	=323-	=323-	=323-	=323-	=323-
2C/	.	2e-X\	ho-	.	1G	-di-
2E-X\	.	1c\	.	.	.	.
=324-	=324-	=324-	=324-	=324-	=324-	=324-
*	*	*	*	*	*lig	*
1D	-di-	.	.	.	1d	-can-
.	.	2B-\	mo	.	.	.
=325-	=325-	=325-	=325-	=325-	=325-	=325-
!	!	!	!	!	!LO:TX:a:t=P:problem=♭ above	!
1C	-can-	2B-\	re-	.	1e-X	.
.	.	2A\	.	.	.	.
*	*	*	*	*	*Xlig	*
=326-	=326-	=326-	=326-	=326-	=326-	=326-
4BB-/	-dus	2B-\	-us	.	1d	-dus
4C/	.	.	.	.	.	.
4D\	.	4Fny/	hu-	.	.	.
4Eny\	.	4G/	.	.	.	.
=327-	=327-	=327-	=327-	=327-	=327-	=327-
*	*	*	*	*	*lig	*
4F\	ho-	4A\	-ic	.	1c	ho-
4G\	.	4B-\	.	.	.	.
4A\	.	4c\	er-	.	.	.
4F\	.	4A\	-go	.	.	.
=328-	=328-	=328-	=328-	=328-	=328-	=328-
1G	-mo	2B-\	par-	.	1B-	.
.	.	1d\	-ce	.	.	.
*	*	*	*	*	*Xlig	*
=329-	=329-	=329-	=329-	=329-	=329-	=329-
0F	Re-	.	.	.	1A	-mo
.	.	4c\	De-	.	.	.
.	.	4B-\	.	.	.	.
=330-	=330-	=330-	=330-	=330-	=330-	=330-
.	.	4A\	.	.	1c	re-
.	.	2B-\	.	.	.	.
.	.	4A\	.	.	.	.
=331-	=331-	=331-	=331-	=331-	=331-	=331-
0BB-;>	-us]	1B-;<	-us	.	0d;<	-us
=332-	=332-	=332-	=332-	=332-	=332-	=332-
.	.	1ryy	.	.	.	.
!	!	!LO:LB:g=original	!	!	!LO:LB:g=original	!
=333-	=333-	=333-	=333-	=333-	=333-	=333-
*clefF4	*	*	*	*	*	*
1BB-X	Pi-	1d	Pi-	.	1B-	Hu-
=334-	=334-	=334-	=334-	=334-	=334-	=334-
2FF/	-e	2c\	-e	.	1A	-ic
1F\	Je-	4c\	Je-	.	.	.
.	.	4B-\	.	.	.	.
=335-	=335-	=335-	=335-	=335-	=335-	=335-
*	*	*	*	*	*lig	*
.	.	4A\	.	.	1c	er-
.	.	4B-\	.	.	.	.
2E\	.	1c\	.	.	.	.
=336-	=336-	=336-	=336-	=336-	=336-	=336-
1D	.	.	.	.	1d	.
!	!	!LO:TX:a:t=P:problem=# above	!	!	!	!
!	!	!LO:N:acc=#	!	!	!	!
.	.	2Bn\	.	.	.	.
*	*	*	*	*	*Xlig	*
=337-	=337-	=337-	=337-	=337-	=337-	=337-
2C/	-ſu	2c\	-ſu	.	1G	-go
2.GG/	Do-	2.B-y\	Do-	.	.	.
=338-	=338-	=338-	=338-	=338-	=338-	=338-
*	*	*	*	*	*lig	*
.	.	.	.	.	1B-	par-
4AA/	.	4A\	.	.	.	.
*custos:BB-	*	*	*	*	*	*
!LO:LB:g=original	!	!	!	!	!	!
4BB-/	.	2G/	.	.	.	.
4C/	.	.	.	.	.	.
=339-	=339-	=339-	=339-	=339-	=339-	=339-
1D	.	4F/	.	.	1A	.
.	.	4G/	.	.	.	.
.	.	4A/	.	.	.	.
.	.	4F/	.	.	.	.
*	*	*	*	*	*Xlig	*
=340-	=340-	=340-	=340-	=340-	=340-	=340-
*	*	*	*	*	*lig	*
1E-X	.	2.G/	.	.	1G	.
.	.	4A/	.	.	.	.
=341-	=341-	=341-	=341-	=341-	=341-	=341-
0.D	-mi-	2B-\	.	.	1F	.
.	.	2.A/	.	.	.	.
*	*	*	*	*	*Xlig	*
=342-	=342-	=342-	=342-	=342-	=342-	=342-
.	.	.	.	.	1B-	-ce
.	.	4G/	.	.	.	.
.	.	1G/	.	.	.	.
=343-	=343-	=343-	=343-	=343-	=343-	=343-
.	.	.	.	.	1A	De-
.	.	2F/	-mi-	.	.	.
=344-	=344-	=344-	=344-	=344-	=344-	=344-
1GG	-ne	1G	-ne	.	1G	-us
=345-	=345-	=345-	=345-	=345-	=345-	=345-
2r	.	2r	.	.	1d	Pi-
2BB-/	do-	1B-\	do-	.	.	.
=346-	=346-	=346-	=346-	=346-	=346-	=346-
1FF	-na	.	.	.	1c	-e
.	.	2A/	-na	.	.	.
!	!	!LO:LB:g=original	!	!	!	!
=347-	=347-	=347-	=347-	=347-	=347-	=347-
1GG	e-	1.G	e-	.	1B-	Je-
=348-	=348-	=348-	=348-	=348-	=348-	=348-
1D	-is	.	.	.	1A	-ſu
!	!	!LO:TX:b:t=P:problem=# below	!	!	!	!
.	.	2F#X/	.	.	.	.
=349-	=349-	=349-	=349-	=349-	=349-	=349-
1.C	re-	1.G	-is	.	1c	Do-
=350-	=350-	=350-	=350-	=350-	=350-	=350-
.	.	.	.	.	1c	-mi-
2C/	-qui-	2A/	re-	.	.	.
=351-	=351-	=351-	=351-	=351-	=351-	=351-
0BB-	-em	2.B-\	.	.	1d	-ne
.	.	4c\	-qui-	.	.	.
=352-	=352-	=352-	=352-	=352-	=352-	=352-
.	.	1d	-em	.	1B-	do-
=353-	=353-	=353-	=353-	=353-	=353-	=353-
2r	.	2r	.	.	1A	-na
1F\	ſem-	1c\	ſem-	.	.	.
=354-	=354-	=354-	=354-	=354-	=354-	=354-
.	.	.	.	.	1c	e-
2Eny\	-pi-	2G/	.	.	.	.
*	*	*	*	*	*custos:A	*
!	!	!	!	!	!LO:LB:g=original	!
=355-	=355-	=355-	=355-	=355-	=355-	=355-
*	*	*	*	*	*lig	*
1F	-ter-	1c	-pi-	.	1A	-is
=356-	=356-	=356-	=356-	=356-	=356-	=356-
1C	.	2c\	-ter-	.	1G	.
.	.	2.c\	-nam	.	.	.
*	*	*	*	*	*Xlig	*
=357-	=357-	=357-	=357-	=357-	=357-	=357-
*lig	*	*	*	*	*	*
1FF	.	.	.	.	1A	re-
.	.	4B-\	.	.	.	.
.	.	2.A/	.	.	.	.
=358-	=358-	=358-	=358-	=358-	=358-	=358-
1GG	.	.	.	.	1B-	.
.	.	4G/	.	.	.	.
.	.	1G/	.	.	.	.
*Xlig	*	*	*	*	*	*
=359-	=359-	=359-	=359-	=359-	=359-	=359-
2.D/	.	.	.	.	1A	-qui-
!	!	!LO:TX:b:t=P:problem=# below	!	!	!	!
.	.	2F#X/	.	.	.	.
4D/	.	.	.	.	.	.
=360-	=360-	=360-	=360-	=360-	=360-	=360-
0GG;>	-nam	0G;	.	.	0G;>	-em
!LO:LB:g=original	!	!LO:LB:g=original	!	!	!	!
=361-	=361-	=361-	=361-	=361-	=361-	=361-
*k[b-b-]	*	*k[b-]	*	*	*k[b-]	*
*	*	*	*	*	*lig	*
1.D	A-	2r	.	.	1F	A-
.	.	2.A/	A-	.	.	.
=362-	=362-	=362-	=362-	=362-	=362-	=362-
.	.	.	.	.	1A	.
.	.	4B-\	.	.	.	.
2C/	.	2c\	.	.	.	.
*	*	*	*	*	*Xlig	*
=363-	=363-	=363-	=363-	=363-	=363-	=363-
*	*	*	*	*	*lig	*
2BB-/	.	1d	.	.	1B-	.
2GG/	.	.	.	.	.	.
=364-	=364-	=364-	=364-	=364-	=364-	=364-
1D	.	2.d\	.	.	1A	.
.	.	4c\	.	.	.	.
*	*	*	*	*	*Xlig	*
=365-	=365-	=365-	=365-	=365-	=365-	=365-
*	*	*	*	*	*lig	*
2GG/	.	2B-\	.	.	1G	.
4GG/	.	1B-\	.	.	.	.
4AA/	.	.	.	.	.	.
=366-	=366-	=366-	=366-	=366-	=366-	=366-
4BB-/	.	.	.	.	1F	.
4C/	.	.	.	.	.	.
2D/	.	2A/	.	.	.	.
*	*	*	*	*	*Xlig	*
=367-	=367-	=367-	=367-	=367-	=367-	=367-
2.E-X\	.	2G/	.	.	[>0G	.
.	.	1e-X\	.	.	.	.
4D/	.	.	.	.	.	.
=368-	=368-	=368-	=368-	=368-	=368-	=368-
2C/	.	.	.	.	.	.
!LO:N:acc=#	!	!	!	!	!	!
2BBn/	.	2d\	.	.	.	.
=369-	=369-	=369-	=369-	=369-	=369-	=369-
2C/	.	2c\	.	.	0G_>	.
!	!	!LO:N:acc=#	!	!	!	!
!	!	!LO:TX:a:t=P:problem=# above	!	!	!	!
2G\	.	2Bn\	.	.	.	.
=370-	=370-	=370-	=370-	=370-	=370-	=370-
1C	.	1.c	-men	.	.	.
=371-	=371-	=371-	=371-	=371-	=371-	=371-
[0GGl;>	-men	.	.	.	[>0Gl;>]	men
!	!	!LO:N:acc=#	!	!	!	!
!	!	!LO:TX:a:t=P:problem=# above	!	!	!	!
.	.	4Bn\	.	.	.	.
.	.	4A\	.	.	.	.
=372-	=372-	=372-	=372-	=372-	=372-	=372-
.	.	0Bny;<	.	.	.	.
1GG]	.	.	.	.	1G]	.
=-	=-	=-	=-	=-	=-	=-
*-	*-	*-	*-	*-	*-	*-
!!!system-decoration: [(g1)]
!!!RDF**kern: > = above
!!!RDF**kern: < = below
!!!RDF**kern: l = terminal long
!!!ENC: Filip Voros
!!!END: 2021-10-26
!!!EED: Jędrzej Mróz
!!!ESR: 2021-10-28
!!!YEC: Copyright 2022 Narodowy Instytut Fryderyka Chopina (https://polishscores.org)
!!!YEM: License CC-BY-4.0 (https://creativecommons.org/licenses/by/4.0)
